white/xmo.svg

<!-- Generated by IcoMoon.io -->
<svg version="1.1" xmlns="http://www.w3.org/2000/svg" width="32" height="32" viewBox="0 0 32 32">
<title>xmo</title>
<path fill="#fff" d="M16 32c-8.837 0-16-7.163-16-16s7.163-16 16-16 16 7.163 16 16-7.163 16-16 16zM28 16c0-0.007 0-0.016 0-0.025 0-2.689-0.895-5.168-2.402-7.158l0.021 0.030-1.96 1.96c0.997 1.456 1.593 3.255 1.594 5.193v0c0 5.11-4.153 9.262-9.262 9.262s-9.263-4.153-9.263-9.262c0-0.004 0-0.008 0-0.012 0-1.935 0.596-3.73 1.614-5.213l-0.020 0.031-1.96-1.96c-1.475 1.967-2.362 4.45-2.362 7.139 0 0.005 0 0.011 0 0.016v-0.001c0 6.628 5.372 12 12 12s12-5.372 12-12zM22.637 16c-0-1.21-0.323-2.345-0.888-3.322l0.017 0.032-5.766 5.764-5.766-5.766c-0.548 0.945-0.871 2.079-0.871 3.289 0 0.001 0 0.002 0 0.004v-0c0.004 3.664 2.973 6.633 6.637 6.637h0c3.664-0.004 6.633-2.973 6.637-6.637v-0zM23.847 6.925c-2.082-1.817-4.823-2.925-7.823-2.925-0.008 0-0.017 0-0.025 0h0.001c-3 0-5.747 1.097-7.847 2.925l1.866 1.866 5.981 5.971 7.847-7.837z"></path>
</svg>

<svg width="32" height="32" viewBox="0 0 32 32" xmlns="http://www.w3.org/2000/svg"><path d="M16 32C7.163 32 0 24.837 0 16S7.163 0 16 0s16 7.163 16 16-7.163 16-16 16zm12-16a11.86 11.86 0 00-2.381-7.153l-1.96 1.96A9.272 9.272 0 0125.253 16c0 5.11-4.153 9.262-9.262 9.262-5.11 0-9.263-4.153-9.263-9.262a9.22 9.22 0 011.594-5.194l-1.96-1.96A11.969 11.969 0 004 16c0 6.628 5.372 12 12 12s12-5.372 12-12zm-5.363 0a6.65 6.65 0 00-.871-3.29L16 18.474l-5.766-5.766A6.644 6.644 0 009.363 16 6.644 6.644 0 0016 22.637 6.644 6.644 0 0022.637 16zm1.21-9.075A11.925 11.925 0 0016 4c-3 0-5.747 1.097-7.847 2.925l1.866 1.866L16 14.762l7.847-7.837z" fill="#FFF"/></svg>
